car-select.svg

<svg fill="currentColor" viewBox="0 0 24 24"><path d="m5 13 1.5-4.5h11L19 13m-1.5 5c-.8 0-1.5-.7-1.5-1.5s.7-1.5 1.5-1.5 1.5.7 1.5 1.5-.7 1.5-1.5 1.5m-11 0c-.8 0-1.5-.7-1.5-1.5S5.7 15 6.5 15s1.5.7 1.5 1.5S7.3 18 6.5 18M18.9 8c-.2-.6-.8-1-1.4-1h-11c-.7 0-1.2.4-1.4 1L3 14v8c0 .6.4 1 1 1h1c.6 0 1-.4 1-1v-1h12v1c0 .6.4 1 1 1h1c.6 0 1-.4 1-1v-8M8 1l4 4.5L16 1Z"/></svg>

<svg  viewBox="0 0 24 24" fill="currentColor"><path  d="M5 13L6.5 8.5H17.5L19 13M17.5 18C16.7 18 16 17.3 16 16.5S16.7 15 17.5 15 19 15.7 19 16.5 18.3 18 17.5 18M6.5 18C5.7 18 5 17.3 5 16.5S5.7 15 6.5 15 8 15.7 8 16.5 7.3 18 6.5 18M18.9 8C18.7 7.4 18.1 7 17.5 7H6.5C5.8 7 5.3 7.4 5.1 8L3 14V22C3 22.6 3.4 23 4 23H5C5.6 23 6 22.6 6 22V21H18V22C18 22.6 18.4 23 19 23H20C20.6 23 21 22.6 21 22V14M8 1L12 5.5L16 1Z"/></svg>
